Sources/FrostedUI/Resources/Icons.xcassets/clock32.imageset/clock-32.svg

<svg width="32" height="32" viewBox="0 0 32 32" fill="none" xmlns="http://www.w3.org/2000/svg" data-fui-icon="true">
  <path
    d="M16 1C24.2843 1 31 7.71573 31 16C31 24.2843 24.2843 31 16 31C7.71573 31 1 24.2843 1 16C1 7.71573 7.71573 1 16 1ZM16 2.5C8.54416 2.5 2.5 8.54416 2.5 16C2.5 23.4558 8.54416 29.5 16 29.5C23.4558 29.5 29.5 23.4558 29.5 16C29.5 8.54416 23.4558 2.5 16 2.5ZM15.75 6.25C16.1642 6.25 16.4999 6.58583 16.5 7V16.1484L20.7305 19.6738C21.0485 19.939 21.0913 20.4123 20.8262 20.7305C20.561 21.0485 20.0877 21.0913 19.7695 20.8262L15.2695 17.0762L15.209 17.0195C15.0756 16.8806 15 16.6947 15 16.5V7C15.0001 6.58583 15.3358 6.25 15.75 6.25Z"
    fill="currentColor"
  />
</svg>

<svg xmlns="http://www.w3.org/2000/svg" width="32" height="32" fill="none" data-fui-icon="true" viewBox="0 0 32 32"><path fill="currentColor" d="M16 1c8.284 0 15 6.716 15 15s-6.716 15-15 15S1 24.284 1 16 7.716 1 16 1m0 1.5C8.544 2.5 2.5 8.544 2.5 16S8.544 29.5 16 29.5 29.5 23.456 29.5 16 23.456 2.5 16 2.5m-.25 3.75a.75.75 0 0 1 .75.75v9.148l4.23 3.526a.75.75 0 0 1-.96 1.152l-4.5-3.75-.061-.056A.75.75 0 0 1 15 16.5V7a.75.75 0 0 1 .75-.75"/></svg>
